X:36
T:Hurrah, Sing Fare Ye Well
M:6/8
L:1/8
Q:1/4=3D90
K:EMix
E|\
C2E A2B|cBc A2e|c2B A2G|F3 z2c|
d2c d2c|B2A G2G|B2A G2F|E6   ||
